X:1090
T:Dandy Dinny Cronin
R:reel
H:Cf. "Dandy Denny Cronin" #766
Z:id:hn-reel-1090
M:C|
L:1/8
K:Amix
Aeed ~e3f | gefd edBG | Aeed ~e3f | gefd BA~A2 |
Aeed ~e3f | g2fg efge | d2ef g3e | e2ge BA~A2 :|
|: a2ef ~g3a | g2fg efge | ae~e2 ~g3e | ~e2ge BA~A2 |
a2ef ~g3a | g2fg efge | d2ef ~g3e | ~e2ge BA~A2 :| 
P:variations
|: Aeed e2de | ge~e2 gedB | Aeed e2de | gedB BAAG |
Aeed e2ef | ~g2fg efge | dged g2fg | edgd BAAG :|
|: agef ~g3f | ~g2fg efge | a2ef gede | dged baag |
agef ~g3f | ~g2fg efge | dged ~g2fg | edgd BAAG :| 

